X: 41630
T: Up The Chimney
R: reel
M: 4/4
K: Dmajor
|:DF (3FFF AFBF|DFAF EA,CE|D2 FA BAFA|(3Bcd ec dBAF|
DF (3FFF AFBF|DFAF EA,CE|D2 FA BAFA|(3Bcd ec dBAF:|
|:A2 df Adfd|Adfd cABc|d2 fd Adfg|afge fdec|
d2 fd Adfd|cdef g2 ag|(3fff fd gfed|(3ccc Bc dBAF:|

